;FLAVOR:Marlin
;TIME:2514
;Filament used: 1.31172m
;Layer height: 0.2
;MINX:99.65
;MINY:99.65
;MINZ:0.2
;MAXX:135.35
;MAXY:135.35
;MAXZ:16
;Generated with Cura_SteamEngine 4.5.0
M140 S50
M105
M190 S50
M104 S200
M105
M109 S200
M82 ;absolute extrusion mode
; Ender 3 Custom Start G-code
G92 E0 ; Reset Extruder
G28 ; Home all axes
G1 Z2.0 F3000 ; Move Z Axis up little to prevent scratching of Heat Bed
G1 X0.1 Y20 Z0.3 F5000.0 ; Move to start position
G1 X0.1 Y200.0 Z0.3 F1500.0 E15 ; Draw the first line
G1 X0.4 Y200.0 Z0.3 F5000.0 ; Move to side a little
G1 X0.4 Y20 Z0.3 F1500.0 E30 ; Draw the second line
G92 E0 ; Reset Extruder
G1 Z2.0 F3000 ; Move Z Axis up little to prevent scratching of Heat Bed
G1 X5 Y20 Z0.3 F5000.0 ; Move over to prevent blob squish
G92 E0
G92 E0
G1 F2700 E-5
;LAYER_COUNT:80
;LAYER:0
M107
G0 F6000 X101.935 Y102.052 Z0.2
;TYPE:SKIRT
G1 F2700 E0
G1 F1200 X102.052 Y101.935 E0.0055
G1 X102.638 Y101.405 E0.03178
G1 X103.274 Y100.938 E0.05803
G1 X103.954 Y100.537 E0.08428
G1 X104.672 Y100.207 E0.11057
G1 X105.419 Y99.952 E0.13682
G1 X106.188 Y99.773 E0.16308
G1 X106.972 Y99.673 E0.18937
G1 X107.567 Y99.65 E0.20917
G1 X112.469 Y99.65 E0.37221
G1 X112.884 Y99.671 E0.38603
G1 X112.982 Y99.661 E0.38931
G1 X113.394 Y99.651 E0.40302
G1 X121.608 Y99.659 E0.67622
G1 X121.909 Y99.675 E0.68624
G1 X122.517 Y99.65 E0.70648
G1 X127.433 Y99.65 E0.86999
G1 X128.222 Y99.69 E0.89626
G1 X129.002 Y99.809 E0.92251
G1 X129.767 Y100.007 E0.94879
G1 X130.507 Y100.281 E0.97503
G1 X131.216 Y100.629 E1.0013
G1 X131.887 Y101.047 E1.0276
G1 X132.511 Y101.53 E1.05384
G1 X132.948 Y101.935 E1.07366
G1 X133.065 Y102.052 E1.07916
G1 X133.595 Y102.638 E1.10544
G1 X134.062 Y103.274 E1.13169
G1 X134.463 Y103.954 E1.15794
G1 X134.793 Y104.672 E1.18422
G1 X135.048 Y105.419 E1.21048
G1 X135.227 Y106.188 E1.23674
G1 X135.327 Y106.972 E1.26303
G1 X135.35 Y107.567 E1.28283
G1 X135.35 Y127.433 E1.94358
G1 X135.31 Y128.222 E1.96985
G1 X135.191 Y129.002 E1.99609
G1 X134.993 Y129.767 E2.02238
G1 X134.719 Y130.507 E2.04862
G1 X134.371 Y131.216 E2.07489
G1 X133.953 Y131.887 E2.10119
G1 X133.47 Y132.511 E2.12743
G1 X133.065 Y132.948 E2.14725
G1 X132.948 Y133.065 E2.15275
G1 X132.362 Y133.595 E2.17903
G1 X131.726 Y134.062 E2.20527
G1 X131.046 Y134.463 E2.23153
G1 X130.328 Y134.793 E2.25781
G1 X129.581 Y135.048 E2.28407
G1 X128.812 Y135.227 E2.31033
G1 X128.028 Y135.327 E2.33661
G1 X127.433 Y135.35 E2.35642
G1 X107.567 Y135.35 E3.01716
G1 X106.778 Y135.31 E3.04344
G1 X105.998 Y135.191 E3.06968
G1 X105.233 Y134.993 E3.09597
G1 X104.493 Y134.719 E3.12221
G1 X103.784 Y134.371 E3.14848
G1 X103.113 Y133.953 E3.17477
G1 X102.489 Y133.47 E3.20102
G1 X102.052 Y133.065 E3.22084
G1 X101.935 Y132.948 E3.22634
G1 X101.405 Y132.362 E3.25262
G1 X100.938 Y131.726 E3.27886
G1 X100.537 Y131.046 E3.30512
G1 X100.207 Y130.328 E3.3314
G1 X99.952 Y129.581 E3.35765
G1 X99.773 Y128.812 E3.38392
G1 X99.673 Y128.028 E3.4102
G1 X99.65 Y127.433 E3.43001
G1 X99.65 Y107.567 E4.09075
G1 X99.69 Y106.778 E4.11703
G1 X99.809 Y105.998 E4.14327
G1 X100.007 Y105.233 E4.16955
G1 X100.281 Y104.493 E4.1958
G1 X100.629 Y103.784 E4.22207
G1 X101.047 Y103.113 E4.24836
G1 X101.53 Y102.489 E4.27461
G1 X101.935 Y102.052 E4.29442
G0 F6000 X102.334 Y102.217
G1 F1200 X102.906 Y101.703 E4.32
G1 X103.528 Y101.25 E4.34559
G1 X104.193 Y100.864 E4.37117
G1 X104.895 Y100.549 E4.39676
G1 X105.626 Y100.309 E4.42235
G1 X106.377 Y100.146 E4.44791
G1 X107.142 Y100.062 E4.47351
G1 X107.567 Y100.05 E4.48765
G1 X112.469 Y100.05 E4.65069
G1 X112.961 Y100.076 E4.66708
G1 X113.393 Y100.051 E4.68147
G1 X121.607 Y100.059 E4.95467
G1 X121.952 Y100.077 E4.96616
G1 X122.092 Y100.062 E4.97084
G1 X122.517 Y100.05 E4.98498
G1 X127.433 Y100.05 E5.14849
G1 X128.201 Y100.09 E5.17407
G1 X128.961 Y100.209 E5.19965
G1 X129.704 Y100.407 E5.22523
G1 X130.423 Y100.681 E5.25082
G1 X131.109 Y101.028 E5.27639
G1 X131.756 Y101.444 E5.30197
G1 X132.356 Y101.925 E5.32755
G1 X132.783 Y102.334 E5.34722
G1 X133.297 Y102.906 E5.37279
G1 X133.75 Y103.528 E5.39839
G1 X134.136 Y104.193 E5.42396
G1 X134.451 Y104.895 E5.44955
G1 X134.691 Y105.626 E5.47514
G1 X134.854 Y106.377 E5.5007
G1 X134.938 Y107.142 E5.5263
G1 X134.95 Y107.567 E5.54044
G1 X134.95 Y127.433 E6.20119
G1 X134.91 Y128.201 E6.22676
G1 X134.791 Y128.961 E6.25235
G1 X134.593 Y129.704 E6.27792
G1 X134.319 Y130.423 E6.30352
G1 X133.972 Y131.109 E6.32909
G1 X133.556 Y131.756 E6.35467
G1 X133.075 Y132.356 E6.38025
G1 X132.666 Y132.783 E6.39991
G1 X132.094 Y133.297 E6.42549
G1 X131.472 Y133.75 E6.45108
G1 X130.807 Y134.136 E6.47666
G1 X130.105 Y134.451 E6.50225
G1 X129.374 Y134.691 E6.52784
G1 X128.623 Y134.854 E6.5534
G1 X127.858 Y134.938 E6.57899
G1 X127.433 Y134.95 E6.59314
G1 X107.567 Y134.95 E7.25388
G1 X106.799 Y134.91 E7.27946
G1 X106.039 Y134.791 E7.30505
G1 X105.296 Y134.593 E7.33062
G1 X104.577 Y134.319 E7.35621
G1 X103.891 Y133.972 E7.38178
G1 X103.244 Y133.556 E7.40736
G1 X102.644 Y133.075 E7.43294
G1 X102.217 Y132.666 E7.45261
G1 X101.703 Y132.094 E7.47819
G1 X101.25 Y131.472 E7.50378
G1 X100.864 Y130.807 E7.52935
G1 X100.549 Y130.105 E7.55494
G1 X100.309 Y129.374 E7.58053
G1 X100.146 Y128.623 E7.60609
G1 X100.062 Y127.858 E7.63169
G1 X100.05 Y127.433 E7.64583
G1 X100.05 Y107.567 E8.30658
G1 X100.09 Y106.799 E8.33216
G1 X100.209 Y106.039 E8.35774
G1 X100.407 Y105.296 E8.38332
G1 X100.681 Y104.577 E8.40891
G1 X101.028 Y103.891 E8.43448
G1 X101.444 Y103.244 E8.46006
G1 X101.925 Y102.644 E8.48564
G1 X102.334 Y102.217 E8.5053
G0 F6000 X102.5 Y102.617
G1 F1200 X102.617 Y102.5 E8.51081
G1 X103.174 Y102 E8.5357
G1 X103.78 Y101.563 E8.56055
G1 X104.43 Y101.192 E8.58545
G1 X105.116 Y100.893 E8.61033
G1 X105.83 Y100.669 E8.63522
G1 X106.563 Y100.522 E8.66009
G1 X107.567 Y100.45 E8.69357
G1 X112.469 Y100.45 E8.85661
G1 X112.86 Y100.471 E8.86963
G1 X113.393 Y100.451 E8.88737
G1 X121.607 Y100.459 E9.16057
G1 X122.051 Y100.483 E9.17536
G1 X122.517 Y100.45 E9.1909
G1 X127.433 Y100.45 E9.35441
G1 X128.18 Y100.49 E9.37929
G1 X128.918 Y100.609 E9.40415
G1 X129.64 Y100.807 E9.42905
G1 X130.336 Y101.08 E9.45392
G1 X130.999 Y101.427 E9.4788
G1 X131.622 Y101.842 E9.5037
G1 X132.383 Y102.5 E9.53716
G1 X132.5 Y102.617 E9.54267
G1 X133 Y103.174 E9.56756
G1 X133.437 Y103.78 E9.59241
G1 X133.808 Y104.43 E9.6173
G1 X134.107 Y105.116 E9.64219
G1 X134.331 Y105.83 E9.66708
G1 X134.478 Y106.563 E9.69195
G1 X134.55 Y107.567 E9.72543
G1 X134.55 Y127.433 E10.38617
G1 X134.51 Y128.18 E10.41105
G1 X134.391 Y128.918 E10.43592
G1 X134.193 Y129.64 E10.46082
G1 X133.92 Y130.336 E10.48568
G1 X133.573 Y130.999 E10.51057
G1 X133.158 Y131.622 E10.53547
G1 X132.5 Y132.383 E10.56893
G1 X132.383 Y132.5 E10.57443
G1 X131.826 Y133 E10.59933
G1 X131.22 Y133.437 E10.62418
G1 X130.57 Y133.808 E10.64907
G1 X129.884 Y134.107 E10.67396
G1 X129.17 Y134.331 E10.69885
G1 X128.437 Y134.478 E10.72371
G1 X127.433 Y134.55 E10.75719
G1 X107.567 Y134.55 E11.41794
G1 X106.82 Y134.51 E11.44282
G1 X106.082 Y134.391 E11.46768
G1 X105.36 Y134.193 E11.49258
G1 X104.664 Y133.92 E11.51745
G1 X104.001 Y133.573 E11.54234
G1 X103.378 Y133.158 E11.56724
G1 X102.617 Y132.5 E11.6007
G1 X102.5 Y132.383 E11.6062
G1 X102 Y131.826 E11.6311
G1 X101.563 Y131.22 E11.65594
G1 X101.192 Y130.57 E11.68084
G1 X100.893 Y129.884 E11.70573
G1 X100.669 Y129.17 E11.73062
G1 X100.522 Y128.437 E11.75548
G1 X100.45 Y127.433 E11.78896
G1 X100.45 Y107.567 E12.44971
G1 X100.49 Y106.82 E12.47459
G1 X100.609 Y106.082 E12.49945
G1 X100.807 Y105.36 E12.52435
G1 X101.08 Y104.664 E12.54922
G1 X101.427 Y104.001 E12.57411
G1 X101.842 Y103.378 E12.599
G1 X102.5 Y102.617 E12.63246
G0 F6000 X102.783 Y102.9
G1 F1200 X102.9 Y102.783 E12.63797
G1 X103.441 Y102.299 E12.66211
G1 X104.032 Y101.876 E12.68628
G1 X104.666 Y101.522 E12.71043
G1 X105.335 Y101.239 E12.73459
G1 X106.031 Y101.031 E12.75876
G1 X106.746 Y100.901 E12.78293
G1 X107.567 Y100.85 E12.81029
G1 X112.469 Y100.85 E12.97333
G1 X112.991 Y100.879 E12.99072
G1 X113.392 Y100.851 E13.00409
G1 X121.606 Y100.859 E13.27728
G1 X122.007 Y100.882 E13.29064
G1 X122.517 Y100.85 E13.30764
G1 X127.433 Y100.85 E13.47115
G1 X128.158 Y100.89 E13.4953
G1 X128.875 Y101.009 E13.51947
G1 X129.574 Y101.207 E13.54363
G1 X130.247 Y101.48 E13.56779
G1 X130.886 Y101.825 E13.59194
G1 X131.483 Y102.239 E13.61611
G1 X132.1 Y102.783 E13.64346
G1 X132.217 Y102.9 E13.64897
G1 X132.701 Y103.441 E13.67311
G1 X133.124 Y104.032 E13.69728
G1 X133.478 Y104.666 E13.72144
G1 X133.761 Y105.335 E13.7456
G1 X133.969 Y106.031 E13.76976
G1 X134.099 Y106.746 E13.79393
G1 X134.15 Y107.567 E13.82129
G1 X134.15 Y127.433 E14.48203
G1 X134.11 Y128.158 E14.50618
G1 X133.991 Y128.875 E14.53036
G1 X133.793 Y129.574 E14.55452
G1 X133.52 Y130.247 E14.57868
G1 X133.175 Y130.886 E14.60283
G1 X132.761 Y131.483 E14.62699
G1 X132.217 Y132.1 E14.65435
G1 X132.1 Y132.217 E14.65985
G1 X131.559 Y132.701 E14.684
G1 X130.968 Y133.124 E14.70817
G1 X130.334 Y133.478 E14.73232
G1 X129.665 Y133.761 E14.75648
G1 X128.969 Y133.969 E14.78064
G1 X128.254 Y134.099 E14.80481
G1 X127.433 Y134.15 E14.83217
G1 X107.567 Y134.15 E15.49292
G1 X106.842 Y134.11 E15.51707
G1 X106.125 Y133.991 E15.54124
G1 X105.426 Y133.793 E15.56541
G1 X104.753 Y133.52 E15.58956
G1 X104.114 Y133.175 E15.61372
G1 X103.517 Y132.761 E15.63788
G1 X102.9 Y132.217 E15.66524
G1 X102.783 Y132.1 E15.67074
G1 X102.299 Y131.559 E15.69488
G1 X101.876 Y130.968 E15.71906
G1 X101.522 Y130.334 E15.74321
G1 X101.239 Y129.665 E15.76737
G1 X101.031 Y128.969 E15.79153
G1 X100.901 Y128.254 E15.8157
G1 X100.85 Y127.433 E15.84306
G1 X100.85 Y107.567 E16.50381
G1 X100.89 Y106.842 E16.52796
G1 X101.009 Y106.125 E16.55213
G1 X101.207 Y105.426 E16.57629
G1 X101.48 Y104.753 E16.60045
G1 X101.825 Y104.114 E16.6246
G1 X102.239 Y103.517 E16.64876
G1 X102.783 Y102.9 E16.67612
G0 F6000 X103.066 Y103.183
G1 F1200 X103.183 Y103.066 E16.68163
G1 X103.708 Y102.597 E16.70504
G1 X104.283 Y102.191 E16.72845
G1 X104.901 Y101.853 E16.75188
G1 X105.552 Y101.586 E16.77528
G1 X106.23 Y101.396 E16.7987
G1 X106.925 Y101.283 E16.82212
G1 X107.567 Y101.25 E16.8435
G1 X112.469 Y101.25 E17.00654
G1 X112.891 Y101.274 E17.0206
G1 X113.392 Y101.251 E17.03728
G1 X121.606 Y101.259 E17.31048
G1 X121.951 Y101.279 E17.32198
G1 X122.517 Y101.25 E17.34083
G1 X127.433 Y101.25 E17.50433
G1 X128.136 Y101.29 E17.52775
G1 X128.83 Y101.409 E17.55117
G1 X129.505 Y101.607 E17.57457
G1 X130.154 Y101.879 E17.59797
G1 X130.768 Y102.224 E17.6214
G1 X131.339 Y102.635 E17.6448
G1 X131.817 Y103.066 E17.66621
G1 X131.934 Y103.183 E17.67171
G1 X132.403 Y103.708 E17.69512
G1 X132.809 Y104.283 E17.71853
G1 X133.147 Y104.901 E17.74196
G1 X133.414 Y105.552 E17.76537
G1 X133.604 Y106.23 E17.78878
G1 X133.717 Y106.925 E17.8122
G1 X133.75 Y107.567 E17.83359
G1 X133.75 Y127.433 E18.49433
G1 X133.71 Y128.136 E18.51775
G1 X133.591 Y128.83 E18.54117
G1 X133.393 Y129.505 E18.56457
G1 X133.121 Y130.154 E18.58797
G1 X132.776 Y130.768 E18.6114
G1 X132.365 Y131.339 E18.6348
G1 X131.934 Y131.817 E18.6562
G1 X131.817 Y131.934 E18.66171
G1 X131.292 Y132.403 E18.68512
G1 X130.717 Y132.809 E18.70853
G1 X130.099 Y133.147 E18.73196
G1 X129.448 Y133.414 E18.75536
G1 X128.77 Y133.604 E18.77878
G1 X128.075 Y133.717 E18.8022
G1 X127.433 Y133.75 E18.82358
G1 X107.567 Y133.75 E19.48433
G1 X106.864 Y133.71 E19.50775
G1 X106.17 Y133.591 E19.53117
G1 X105.495 Y133.393 E19.55456
G1 X104.846 Y133.121 E19.57797
G1 X104.232 Y132.776 E19.60139
G1 X103.661 Y132.365 E19.62479
G1 X103.183 Y131.934 E19.6462
G1 X103.066 Y131.817 E19.6517
G1 X102.597 Y131.292 E19.67512
G1 X102.191 Y130.717 E19.69853
G1 X101.853 Y130.099 E19.72196
G1 X101.586 Y129.448 E19.74536
G1 X101.396 Y128.77 E19.76878
G1 X101.283 Y128.075 E19.7922
G1 X101.25 Y127.433 E19.81358
G1 X101.25 Y107.567 E20.47433
G1 X101.29 Y106.864 E20.49775
G1 X101.409 Y106.17 E20.52117
G1 X101.607 Y105.495 E20.54456
G1 X101.879 Y104.846 E20.56797
G1 X102.224 Y104.232 E20.59139
G1 X102.635 Y103.661 E20.61479
G1 X103.066 Y103.183 E20.6362
G0 F6000 X103.349 Y103.466
G1 F1200 X103.466 Y103.349 E20.6417
G1 X103.975 Y102.896 E20.66436
G1 X104.533 Y102.507 E20.68699
G1 X105.133 Y102.185 E20.70964
G1 X105.767 Y101.936 E20.73229
G1 X106.426 Y101.763 E20.75495
G1 X107.1 Y101.669 E20.77759
G1 X107.567 Y101.65 E20.79313
G1 X112.469 Y101.65 E20.95617
G1 X113.011 Y101.682 E20.97423
G1 X113.392 Y101.651 E20.98695
G1 X121.606 Y101.659 E21.26014
G1 X121.966 Y101.681 E21.27214
G1 X122.05 Y101.669 E21.27496
G1 X122.517 Y101.65 E21.29051
G1 X127.433 Y101.65 E21.45401
G1 X128.113 Y101.69 E21.47667
G1 X128.783 Y101.809 E21.4993
G1 X129.435 Y102.006 E21.52196
G1 X130.059 Y102.278 E21.5446
G1 X130.647 Y102.622 E21.56726
G1 X131.191 Y103.032 E21.58991
G1 X131.534 Y103.349 E21.60545
G1 X131.651 Y103.466 E21.61095
G1 X132.104 Y103.975 E21.63361
G1 X132.493 Y104.533 E21.65624
G1 X132.815 Y105.133 E21.67889
G1 X133.064 Y105.767 E21.70154
G1 X133.237 Y106.426 E21.7242
G1 X133.331 Y107.1 E21.74684
G1 X133.35 Y107.567 E21.76238
G1 X133.35 Y127.433 E22.42313
G1 X133.31 Y128.113 E22.44578
G1 X133.191 Y128.783 E22.46842
G1 X132.994 Y129.435 E22.49107
G1 X132.722 Y130.059 E22.51371
G1 X132.378 Y130.647 E22.53637
G1 X131.968 Y131.191 E22.55903
G1 X131.651 Y131.534 E22.57456
G1 X131.534 Y131.651 E22.58006
G1 X131.025 Y132.104 E22.60273
G1 X130.467 Y132.493 E22.62535
G1 X129.867 Y132.815 E22.648
G1 X129.233 Y133.064 E22.67065
G1 X128.574 Y133.237 E22.69331
G1 X127.9 Y133.331 E22.71595
G1 X127.433 Y133.35 E22.73149
G1 X107.567 Y133.35 E23.39224
G1 X106.887 Y133.31 E23.4149
G1 X106.217 Y133.191 E23.43753
G1 X105.565 Y132.994 E23.46018
G1 X104.941 Y132.722 E23.48282
G1 X104.353 Y132.378 E23.50548
G1 X103.809 Y131.968 E23.52814
G1 X103.466 Y131.651 E23.54367
G1 X103.349 Y131.534 E23.54918
G1 X102.896 Y131.025 E23.57184
G1 X102.507 Y130.467 E23.59446
G1 X102.185 Y129.867 E23.61711
G1 X101.936 Y129.233 E23.63977
G1 X101.763 Y128.574 E23.66243
G1 X101.669 Y127.9 E23.68506
G1 X101.65 Y127.433 E23.70061
G1 X101.65 Y107.567 E24.36135
G1 X101.69 Y106.887 E24.38401
G1 X101.809 Y106.217 E24.40664
G1 X102.006 Y105.565 E24.42929
G1 X102.278 Y104.941 E24.45194
G1 X102.622 Y104.353 E24.47459
G1 X103.032 Y103.809 E24.49725
G1 X103.349 Y103.466 E24.51278
G0 F6000 X103.632 Y103.749
G1 F1200 X103.749 Y103.632 E24.51829
G1 X104.241 Y103.196 E24.54015
G1 X104.782 Y102.824 E24.56199
G1 X105.364 Y102.52 E24.58383
G1 X105.979 Y102.289 E24.60568
G1 X106.618 Y102.134 E24.62755
G1 X107.567 Y102.05 E24.65924
G1 X112.469 Y102.05 E24.82228
G1 X112.915 Y102.077 E24.83714
G1 X113.391 Y102.051 E24.85299
G1 X121.605 Y102.059 E25.12619
G1 X122.08 Y102.089 E25.14202
G1 X122.517 Y102.05 E25.15661
G1 X127.433 Y102.05 E25.32012
G1 X128.089 Y102.09 E25.34198
G1 X128.735 Y102.209 E25.36383
G1 X129.362 Y102.406 E25.38569
G1 X129.96 Y102.678 E25.40754
G1 X130.521 Y103.02 E25.42939
G1 X131.251 Y103.632 E25.46107
G1 X131.368 Y103.749 E25.46658
G1 X131.804 Y104.241 E25.48844
G1 X132.176 Y104.782 E25.51028
G1 X132.48 Y105.364 E25.53212
G1 X132.711 Y105.979 E25.55397
G1 X132.866 Y106.618 E25.57584
G1 X132.95 Y107.567 E25.60753
G1 X132.95 Y127.433 E26.26827
G1 X132.91 Y128.089 E26.29013
G1 X132.791 Y128.735 E26.31198
G1 X132.594 Y129.362 E26.33384
G1 X132.322 Y129.96 E26.35569
G1 X131.98 Y130.521 E26.37754
G1 X131.368 Y131.251 E26.40922
G1 X131.251 Y131.368 E26.41473
G1 X130.759 Y131.804 E26.43659
G1 X130.218 Y132.176 E26.45843
G1 X129.636 Y132.48 E26.48027
G1 X129.021 Y132.711 E26.50212
G1 X128.382 Y132.866 E26.52399
G1 X127.433 Y132.95 E26.55568
G1 X107.567 Y132.95 E27.21642
G1 X106.911 Y132.91 E27.23828
G1 X106.265 Y132.791 E27.26013
G1 X105.638 Y132.594 E27.28199
G1 X105.04 Y132.322 E27.30384
G1 X104.479 Y131.98 E27.32569
G1 X103.749 Y131.368 E27.35737
G1 X103.632 Y131.251 E27.36288
G1 X103.196 Y130.759 E27.38474
G1 X102.824 Y130.218 E27.40658
G1 X102.52 Y129.636 E27.42842
G1 X102.289 Y129.021 E27.45027
G1 X102.134 Y128.382 E27.47214
G1 X102.05 Y127.433 E27.50383
G1 X102.05 Y107.567 E28.16457
G1 X102.09 Y106.911 E28.18643
G1 X102.209 Y106.265 E28.20828
G1 X102.406 Y105.638 E28.23014
G1 X102.678 Y105.04 E28.25199
G1 X103.02 Y104.479 E28.27384
